X: 38675
T: Stranger At The Gate
R: reel
M: 4/4
K: Edorian
B2 EF GBEG|FDAF DFED|ABBd BAAA|FGFD AAAG|
BGEF GABG|A2 de fdec|d2 AF DFED|BFAF EBBA:|
B/c/d ed fgge|g/f/e fd efdB|ABdg fedf|d2 AF DFED|
[1B2 EG GEGB|GAAd effg|d2 AF DFED|BFAF EBBA:|
[2BGEF GABG|A2 de fdec|d2 AF DFED|BFAF EBBA:|

